Simply-Purple-Circles/scalable/apps/plasma-media-center.svg

<svg xmlns="http://www.w3.org/2000/svg" width="48" height="48" viewBox="0 0 12.7 12.7"><defs><linearGradient id="a"><stop stop-color="#ee6406"/><stop offset="1" stop-color="#ffce0d"/></linearGradient></defs><path d="M6.34.07a6.29 6.29 0 0 0-6.29 6.3 6.29 6.29 0 0 0 6.3 6.28 6.29 6.29 0 0 0 6.28-6.29A6.29 6.29 0 0 0 6.34.07zm-.01.94a5.4 5.4 0 0 1 5.4 5.4 5.4 5.4 0 0 1-5.4 5.41 5.4 5.4 0 0 1-5.41-5.4A5.4 5.4 0 0 1 6.32 1zM3.4 3.04c-.37 0-.67.3-.67.67V8.3c0 .37.3.67.67.67h1.68v.8H3.52v.62h5.84v-.62H7.75v-.8h1.64c.37 0 .67-.3.67-.67V3.71c0-.37-.3-.67-.67-.67H3.4zm.5.67h5c.3 0 .53.23.53.52v3.53c0 .3-.24.52-.52.52h-5a.52.52 0 0 1-.52-.52V4.23c0-.29.23-.52.52-.52zm1.7.5V7l2.34-1.4-2.33-1.4zM7.2 7.37a.14.14 0 0 0-.14.13H3.77c-.03 0-.07.05-.07.12 0 .07.04.12.07.12h3.28c0 .07.06.13.14.13.07 0 .13-.06.13-.14v-.22a.14.14 0 0 0-.13-.14z" fill="#963996"/><path d="M7.19 7.5v.25h1.74c.03 0 .07-.05.07-.12 0-.07-.04-.12-.07-.12z" opacity=".75" fill="#963996"/></svg>

<?xml version="1.0" encoding="UTF-8" standalone="no"?>
<svg
   xmlns:dc="http://purl.org/dc/elements/1.1/"
   xmlns:cc="http://creativecommons.org/ns#"
   xmlns:rdf="http://www.w3.org/1999/02/22-rdf-syntax-ns#"
   xmlns:svg="http://www.w3.org/2000/svg"
   xmlns="http://www.w3.org/2000/svg"
   xmlns:sodipodi="http://sodipodi.sourceforge.net/DTD/sodipodi-0.dtd"
   xmlns:inkscape="http://www.inkscape.org/namespaces/inkscape"
   width="48"
   height="48"
   viewBox="0 0 12.7 12.7"
   version="1.1"
   id="svg13"
   sodipodi:docname="plasma-media-center.svg"
   inkscape:version="0.92.4 (5da689c313, 2019-01-14)">
  <metadata
     id="metadata17">
    <rdf:RDF>
      <cc:Work
         rdf:about="">
        <dc:format>image/svg+xml</dc:format>
        <dc:type
           rdf:resource="http://purl.org/dc/dcmitype/StillImage" />
        <dc:title></dc:title>
      </cc:Work>
    </rdf:RDF>
  </metadata>
  <sodipodi:namedview
     pagecolor="#ffffff"
     bordercolor="#666666"
     borderopacity="1"
     objecttolerance="10"
     gridtolerance="10"
     guidetolerance="10"
     inkscape:pageopacity="0"
     inkscape:pageshadow="2"
     inkscape:window-width="1087"
     inkscape:window-height="480"
     id="namedview15"
     showgrid="false"
     inkscape:zoom="4.9166667"
     inkscape:cx="2.1355932"
     inkscape:cy="24"
     inkscape:window-x="0"
     inkscape:window-y="25"
     inkscape:window-maximized="0"
     inkscape:current-layer="svg13" />
  <defs
     id="defs7">
    <linearGradient
       id="a">
      <stop
         stop-color="#ee6406"
         id="stop2" />
      <stop
         offset="1"
         stop-color="#ffce0d"
         id="stop4" />
    </linearGradient>
  </defs>
  <path
     d="M 6.34,0.07 A 6.29,6.29 0 0 0 0.05,6.37 6.29,6.29 0 0 0 6.35,12.65 6.29,6.29 0 0 0 12.63,6.36 6.29,6.29 0 0 0 6.34,0.07 Z M 6.33,1.01 a 5.4,5.4 0 0 1 5.4,5.4 5.4,5.4 0 0 1 -5.4,5.41 A 5.4,5.4 0 0 1 0.92,6.42 5.4,5.4 0 0 1 6.32,1 Z M 3.4,3.04 c -0.37,0 -0.67,0.3 -0.67,0.67 V 8.3 c 0,0.37 0.3,0.67 0.67,0.67 h 1.68 v 0.8 H 3.52 v 0.62 H 9.36 V 9.77 H 7.75 v -0.8 h 1.64 c 0.37,0 0.67,-0.3 0.67,-0.67 V 3.71 c 0,-0.37 -0.3,-0.67 -0.67,-0.67 z m 0.5,0.67 h 5 c 0.3,0 0.53,0.23 0.53,0.52 v 3.53 c 0,0.3 -0.24,0.52 -0.52,0.52 h -5 A 0.52,0.52 0 0 1 3.39,7.76 V 4.23 c 0,-0.29 0.23,-0.52 0.52,-0.52 z m 1.7,0.5 V 7 L 7.94,5.6 5.61,4.2 Z M 7.2,7.37 A 0.14,0.14 0 0 0 7.06,7.5 H 3.77 C 3.74,7.5 3.7,7.55 3.7,7.62 c 0,0.07 0.04,0.12 0.07,0.12 h 3.28 c 0,0.07 0.06,0.13 0.14,0.13 0.07,0 0.13,-0.06 0.13,-0.14 V 7.51 A 0.14,0.14 0 0 0 7.19,7.37 Z"
     id="path9"
     inkscape:connector-curvature="0"
     style="fill:#963996" />
  <path
     d="M 7.19,7.5 V 7.75 H 8.93 C 8.96,7.75 9,7.7 9,7.63 9,7.56 8.96,7.51 8.93,7.51 Z"
     id="path11"
     inkscape:connector-curvature="0"
     style="opacity:0.75;fill:#963996" />
</svg>
